Sources/Icon/Icons.xcassets/BrandLogos/finn.imageset/finn.svg

<svg width="92" height="33" viewBox="0 0 92 33" fill="none" xmlns="http://www.w3.org/2000/svg">
<path fill-rule="evenodd" clip-rule="evenodd" d="M2.09214 29.0567V3.08996C2.09214 2.57782 2.50973 2.16109 3.02292 2.16109H11.2519C21.5752 2.16109 29.9737 10.5424 29.9737 20.8444V29.9854H3.02292C2.50973 29.9854 2.09214 29.5689 2.09214 29.0567ZM89.9079 29.0567C89.9079 29.5689 89.4903 29.9854 88.9771 29.9854H32.0658V3.08996C32.0658 2.57782 32.4834 2.16109 32.9966 2.16109H88.9771C89.4903 2.16109 89.9079 2.57782 89.9079 3.08996V29.0567ZM88.9771 0.0732422H32.9966C31.3297 0.0732422 29.9737 1.4265 29.9737 3.08996V11.7742C26.5933 4.85343 19.4719 0.0732422 11.2519 0.0732422H3.02292C1.35604 0.0732422 0 1.4265 0 3.08996V29.0567C0 30.72 1.35604 32.0732 3.02292 32.0732H88.9771C90.644 32.0732 92 30.72 92 29.0567V3.08996C92 1.4265 90.644 0.0732422 88.9771 0.0732422Z" fill="white"/>
<path fill-rule="evenodd" clip-rule="evenodd" d="M11.252 2.16113H3.02281C2.50962 2.16113 2.09222 2.57786 2.09222 3.09V29.0568C2.09222 29.5689 2.50962 29.9856 3.02281 29.9856H29.9738V20.8445C29.9738 10.5424 21.5753 2.16113 11.252 2.16113Z" fill="#0063FB"/>
<path fill-rule="evenodd" clip-rule="evenodd" d="M88.9772 2.16113H32.9965C32.4833 2.16113 32.0657 2.57786 32.0657 3.09V29.9854H88.9772C89.4904 29.9854 89.9079 29.5689 89.9079 29.0568V3.09C89.9079 2.57786 89.4904 2.16113 88.9772 2.16113Z" fill="#06BEFB"/>
<path fill-rule="evenodd" clip-rule="evenodd" d="M41.5072 10.6482H49.0454C49.3729 10.6482 49.6385 10.9132 49.6385 11.24V13.0962C49.6385 13.4231 49.3729 13.6881 49.0454 13.6881H44.2116V16.1371H48.0603C48.3878 16.1371 48.6534 16.4021 48.6534 16.729V18.3093C48.6534 18.6361 48.3878 18.9011 48.0603 18.9011H44.2116V20.9066C44.2116 21.2334 43.9461 21.4982 43.6185 21.4982H41.5072C41.1796 21.4982 40.9141 21.2334 40.9141 20.9066V11.24C40.9141 10.9132 41.1796 10.6482 41.5072 10.6482ZM52.9221 10.6482H55.0334C55.361 10.6482 55.6265 10.9132 55.6265 11.24V20.9066C55.6265 21.2334 55.361 21.4984 55.0334 21.4984H52.9221C52.5945 21.4984 52.329 21.2334 52.329 20.9066V11.24C52.329 10.9132 52.5945 10.6482 52.9221 10.6482ZM80.4665 10.6482H78.355C78.0277 10.6482 77.7621 10.9132 77.7621 11.24V15.98L74.4606 11.0017C74.3141 10.781 74.0665 10.6482 73.8011 10.6482H72.1792C71.8517 10.6482 71.5861 10.9132 71.5861 11.24V20.9066C71.5861 21.2334 71.8517 21.4982 72.1792 21.4982H74.2907C74.6183 21.4982 74.8836 21.2334 74.8836 20.9066V16.2214L78.1129 21.1415C78.259 21.3641 78.5076 21.4982 78.7743 21.4982H80.4665C80.7941 21.4982 81.0596 21.2334 81.0596 20.9066V11.24C81.0596 10.9132 80.7941 10.6482 80.4665 10.6482ZM65.6385 10.6482H67.75C68.0776 10.6482 68.3431 10.9132 68.3431 11.24V20.9066C68.3431 21.2334 68.0776 21.4982 67.75 21.4982H66.0578C65.7911 21.4982 65.5425 21.3641 65.3964 21.1415L62.1671 16.2214V20.9066C62.1671 21.2334 61.9015 21.4982 61.5742 21.4982H59.4627C59.1351 21.4982 58.8696 21.2334 58.8696 20.9066V11.24C58.8696 10.9132 59.1351 10.6482 59.4627 10.6482H61.0846C61.35 10.6482 61.5976 10.781 61.7441 11.0017L65.0454 15.98V11.24C65.0454 10.9132 65.3109 10.6482 65.6385 10.6482Z" fill="white"/>
</svg>

<svg width="92" height="32" viewBox="0 0 92 32" fill="none" xmlns="http://www.w3.org/2000/svg">
  <path fill-rule="evenodd" clip-rule="evenodd" d="M2.092 28.983V3.017a.93.93 0 0 1 .93-.93h8.23c10.323 0 18.722 8.382 18.722 18.684v9.141H3.023a.93.93 0 0 1-.93-.928Zm87.816 0a.93.93 0 0 1-.93.93H32.065V3.016a.93.93 0 0 1 .93-.93h55.981a.93.93 0 0 1 .93.93v25.966ZM88.978 0H32.996a3.023 3.023 0 0 0-3.023 3.017V11.7C26.594 4.78 19.472 0 11.252 0h-8.23A3.023 3.023 0 0 0 0 3.017v25.966A3.023 3.023 0 0 0 3.023 32h85.954A3.023 3.023 0 0 0 92 28.983V3.017A3.023 3.023 0 0 0 88.977 0Z" fill="#fff"/>
  <path fill-rule="evenodd" clip-rule="evenodd" d="M11.252 2.088h-8.23a.93.93 0 0 0-.93.929v25.966a.93.93 0 0 0 .93.93h26.952V20.77c0-10.302-8.399-18.683-18.722-18.683Z" fill="#0063FB"/>
  <path fill-rule="evenodd" clip-rule="evenodd" d="M88.977 2.088h-55.98a.93.93 0 0 0-.931.929v26.895h56.911a.93.93 0 0 0 .93-.928V3.017a.93.93 0 0 0-.93-.93Z" fill="#06BEFB"/>
  <path fill-rule="evenodd" clip-rule="evenodd" d="M41.507 10.575h7.538c.328 0 .593.265.593.592v1.856a.593.593 0 0 1-.593.592h-4.833v2.449h3.848c.328 0 .593.265.593.592v1.58a.593.593 0 0 1-.593.592h-3.848v2.005a.592.592 0 0 1-.594.592h-2.11a.592.592 0 0 1-.594-.592v-9.666c0-.327.266-.592.593-.592Zm11.415 0h2.111c.328 0 .593.265.593.592v9.666a.592.592 0 0 1-.593.592h-2.11a.592.592 0 0 1-.594-.592v-9.666c0-.327.265-.592.593-.592Zm27.544 0h-2.111a.592.592 0 0 0-.593.592v4.74l-3.301-4.979a.791.791 0 0 0-.66-.353H72.18a.592.592 0 0 0-.593.592v9.666c0 .327.266.592.593.592h2.112a.592.592 0 0 0 .593-.592v-4.685l3.229 4.92a.79.79 0 0 0 .661.357h1.692a.592.592 0 0 0 .594-.592v-9.666a.592.592 0 0 0-.594-.592Zm-14.828 0h2.112c.328 0 .593.265.593.592v9.666a.592.592 0 0 1-.593.592h-1.692a.79.79 0 0 1-.662-.357l-3.229-4.92v4.685a.592.592 0 0 1-.593.592h-2.111a.592.592 0 0 1-.593-.592v-9.666c0-.327.265-.592.593-.592h1.622c.265 0 .513.133.66.354l3.3 4.978v-4.74c0-.327.266-.592.593-.592Z" fill="#fff"/>
</svg>
